packages/blockchain-info-components/src/Images/img/wallet-logo.svg

<svg fill="none" height="64" viewBox="0 0 64 64" width="64" xmlns="http://www.w3.org/2000/svg"><circle cx="32" cy="32" fill="#efecfe" r="32"/><path d="m15.335 38.6666v-18.3333c0-1.8409 1.4923-3.3333 3.3333-3.3333h26.6667c1.8409 0 3.3333 1.4924 3.3333 3.3333v18.3333c0 1.841-1.4924 3.3334-3.3333 3.3334h-26.6667c-1.841 0-3.3333-1.4924-3.3333-3.3334z" fill="#fff"/><path d="m15.335 38.6666v-18.3333c0-1.8409 1.4923-3.3333 3.3333-3.3333h26.6667c1.8409 0 3.3333 1.4924 3.3333 3.3333v18.3333c0 1.841-1.4924 3.3334-3.3333 3.3334h-26.6667c-1.841 0-3.3333-1.4924-3.3333-3.3334z" fill="#5322e5" fill-opacity=".36"/><path d="m15.335 38.6666v-18.3333c0-1.8409 1.4923-3.3333 3.3333-3.3333h26.6667c1.8409 0 3.3333 1.4924 3.3333 3.3333v18.3333c0 1.841-1.4924 3.3334-3.3333 3.3334h-26.6667c-1.841 0-3.3333-1.4924-3.3333-3.3334z" stroke="#7349f2" stroke-linecap="round" stroke-linejoin="round" stroke-width="2"/><path d="m15.335 38.667v-10h33.3333v10c0 1.841-1.4924 3.3334-3.3333 3.3334h-26.6667c-1.841 0-3.3333-1.4924-3.3333-3.3334z" fill="#fff" stroke="#7349f2" stroke-linecap="round" stroke-linejoin="round" stroke-width="2"/><path d="m15.335 40.1983v-19.7296c0-1.7064 1.6717-2.9113 3.2905-2.3717l19.4302 6.4768c1.3612.4536 2.2793 1.7275 2.2793 3.1622v17.9728c0 2.2751-2.229 3.8817-4.3875 3.1622l-18.9031-6.3011c-1.0209-.3403-1.7094-1.2956-1.7094-2.3716z" fill="#fff"/><path d="m15.335 40.1983v-19.7296c0-1.7064 1.6717-2.9113 3.2905-2.3717l19.4302 6.4768c1.3612.4536 2.2793 1.7275 2.2793 3.1622v17.9728c0 2.2751-2.229 3.8817-4.3875 3.1622l-18.9031-6.3011c-1.0209-.3403-1.7094-1.2956-1.7094-2.3716z" fill="#5322e5" fill-opacity=".36"/><g stroke="#7349f2" stroke-width="2"><path d="m15.335 40.1983v-19.7296c0-1.7064 1.6717-2.9113 3.2905-2.3717l19.4302 6.4768c1.3612.4536 2.2793 1.7275 2.2793 3.1622v17.9728c0 2.2751-2.229 3.8817-4.3875 3.1622l-18.9031-6.3011c-1.0209-.3403-1.7094-1.2956-1.7094-2.3716z" stroke-linecap="round" stroke-linejoin="round"/><path d="m32.835 38.667c1.3807 0 2.5-1.1193 2.5-2.5s-1.1193-2.5-2.5-2.5c-1.3808 0-2.5 1.1193-2.5 2.5s1.1192 2.5 2.5 2.5z" fill="#fff"/></g></svg>

<svg width="64" height="64" viewBox="0 0 64 64" fill="none" xmlns="http://www.w3.org/2000/svg">
<circle cx="32" cy="32" r="32" fill="#EFECFE"/>
<path d="M15.335 38.6666V20.3333C15.335 18.4924 16.8273 17 18.6683 17H45.335C47.1759 17 48.6683 18.4924 48.6683 20.3333V38.6666C48.6683 40.5076 47.1759 42 45.335 42H18.6683C16.8273 42 15.335 40.5076 15.335 38.6666Z" fill="white"/>
<path d="M15.335 38.6666V20.3333C15.335 18.4924 16.8273 17 18.6683 17H45.335C47.1759 17 48.6683 18.4924 48.6683 20.3333V38.6666C48.6683 40.5076 47.1759 42 45.335 42H18.6683C16.8273 42 15.335 40.5076 15.335 38.6666Z" fill="#5322E5" fill-opacity="0.36"/>
<path d="M15.335 38.6666V20.3333C15.335 18.4924 16.8273 17 18.6683 17H45.335C47.1759 17 48.6683 18.4924 48.6683 20.3333V38.6666C48.6683 40.5076 47.1759 42 45.335 42H18.6683C16.8273 42 15.335 40.5076 15.335 38.6666V38.6666Z" stroke="#7349F2" stroke-width="2" stroke-linecap="round" stroke-linejoin="round"/>
<path d="M15.335 38.667V28.667H48.6683V38.667C48.6683 40.508 47.1759 42.0004 45.335 42.0004H18.6683C16.8273 42.0004 15.335 40.508 15.335 38.667Z" fill="white" stroke="#7349F2" stroke-width="2" stroke-linecap="round" stroke-linejoin="round"/>
<path d="M15.335 40.1983V20.4687C15.335 18.7623 17.0067 17.5574 18.6255 18.097L38.0557 24.5738C39.4169 25.0274 40.335 26.3013 40.335 27.736V45.7088C40.335 47.9839 38.106 49.5905 35.9475 48.871L17.0444 42.5699C16.0235 42.2296 15.335 41.2743 15.335 40.1983Z" fill="white"/>
<path d="M15.335 40.1983V20.4687C15.335 18.7623 17.0067 17.5574 18.6255 18.097L38.0557 24.5738C39.4169 25.0274 40.335 26.3013 40.335 27.736V45.7088C40.335 47.9839 38.106 49.5905 35.9475 48.871L17.0444 42.5699C16.0235 42.2296 15.335 41.2743 15.335 40.1983Z" fill="#5322E5" fill-opacity="0.36"/>
<path d="M15.335 40.1983V20.4687C15.335 18.7623 17.0067 17.5574 18.6255 18.097L38.0557 24.5738C39.4169 25.0274 40.335 26.3013 40.335 27.736V45.7088C40.335 47.9839 38.106 49.5905 35.9475 48.871L17.0444 42.5699C16.0235 42.2296 15.335 41.2743 15.335 40.1983V40.1983Z" stroke="#7349F2" stroke-width="2" stroke-linecap="round" stroke-linejoin="round"/>
<path d="M32.835 38.667C34.2157 38.667 35.335 37.5477 35.335 36.167C35.335 34.7863 34.2157 33.667 32.835 33.667C31.4542 33.667 30.335 34.7863 30.335 36.167C30.335 37.5477 31.4542 38.667 32.835 38.667Z" fill="white" stroke="#7349F2" stroke-width="2"/>
</svg>
